X: 42968
T: Willie Davie
R: reel
M: 4/4
K: Amajor
e2ef edcd|e2ef efga|e2ef edcd|Bcde f2ef:|
a2ga fece|a2ga f2ef|a2ga fedc|Bcde f2ef|
a2ga fece|a2ga f2ef|agae fedc|Bcde f2ed||
|:c2ca c2ca|c2a2 fedc|c2ca c2ca|1 Bcde f2ed:|2 Bcde f2ef||

